X:12
T:Bird in the Tree (reel), The  
B:CRE1.087 (Ean ar an gCrann)
F:file ID: cre.1/012bird_t
S:Matthew Tiernan
M:C
L:1/8
Q:180
R:reel
K:G
Bc|dfe^c dBB2|cBAB G2AG|EAA2 BGG2|(3BAG Bd g2Bc|
dfe^c dBB2|cBAB G2FE|DEGA BABc|(3dcB cA BGG2||
(3B^cd ef g2fg|afdf gfed|(3B^cd ef gabg|agab g2ga|
bgg2 agef|gage dBGB|DEGA B2Bc|(3dcB cA BGG2||

%%%

